src/assets/img/cloud_arrow_left.svg

<svg fill="none" height="205" viewBox="0 0 175 205" width="175" xmlns="http://www.w3.org/2000/svg"><path d="m11.2211 115.816c-1.1335-2.43-1.96311-4.407-2.50567-5.765-.40681-1.018-.65187-1.688-.74216-1.94-.63117-1.76-2.46727-2.674-4.24484-2.182-.19223.054-.38461.124-.56354.206-1.64644.759-2.402168 2.606-1.78056 4.339.11642.325.39066 1.073.83053 2.174.58634 1.468 1.4677 3.566 2.66225 6.127 2.38712 5.119 6.03579 12.112 11.09559 19.638 10.0874 15.003 25.9762 32.405 48.9256 41.011 22.7938 8.548 46.7237 7.686 64.7787 4.781 9.055-1.457 16.707-3.44 22.103-5.061 2.546-.765 4.595-1.451 6.056-1.965-1.403 1.294-2.937 2.672-4.505 4.055-3.044 2.685-6.173 5.348-8.649 7.392-1.239 1.024-2.301 1.88-3.099 2.502-.401.312-.717.551-.947.717-.126.091-.197.139-.224.157l-.007.005c-1.641.899-2.29 2.944-1.446 4.633.865 1.729 2.967 2.429 4.696 1.565.407-.203.828-.504 1.08-.685.326-.236.716-.532 1.15-.87.87-.678 1.988-1.58 3.254-2.626 2.536-2.093 5.723-4.806 8.823-7.54 3.09-2.725 6.137-5.51 8.372-7.736 1.104-1.1 2.085-2.137 2.781-2.999.333-.413.709-.915.991-1.444.136-.255.339-.677.455-1.204.104-.473.255-1.572-.405-2.709l-.579-.998-1.581-.685c-7.414-3.212-16.375-7.095-24.442-10.909-8.376-3.961-15.401-7.671-18.819-10.369-1.517-1.198-3.718-.939-4.916.578-1.197 1.517-.938 3.718.579 4.916 4.144 3.271 11.9 7.296 20.164 11.203 4.714 2.229 9.72 4.477 14.53 6.594-1.335.464-3.132 1.058-5.326 1.718-5.164 1.551-12.51 3.455-21.201 4.854-17.438 2.805-40.0026 3.528-61.2088-4.424-21.0506-7.894-35.9118-23.992-45.5744-38.363-4.8152-7.162-8.2915-13.825-10.5607-18.691z" fill="#0b0c18"/></svg>

<svg width="175" height="205" viewBox="0 0 175 205" fill="none" xmlns="http://www.w3.org/2000/svg">
<path d="M11.2211 115.816C10.0876 113.386 9.25799 111.409 8.71543 110.051C8.30862 109.033 8.06356 108.363 7.97327 108.111C7.3421 106.351 5.506 105.437 3.72843 105.929C3.5362 105.983 3.34382 106.053 3.16489 106.135C1.51845 106.894 0.762722 108.741 1.38433 110.474C1.50075 110.799 1.77499 111.547 2.21486 112.648C2.8012 114.116 3.68256 116.214 4.87711 118.775C7.26423 123.894 10.9129 130.887 15.9727 138.413C26.0601 153.416 41.9489 170.818 64.8983 179.424C87.6921 187.972 111.622 187.11 129.677 184.205C138.732 182.748 146.384 180.765 151.78 179.144C154.326 178.379 156.375 177.693 157.836 177.179C156.433 178.473 154.899 179.851 153.331 181.234C150.287 183.919 147.158 186.582 144.682 188.626C143.443 189.65 142.381 190.506 141.583 191.128C141.182 191.44 140.866 191.679 140.636 191.845C140.51 191.936 140.439 191.984 140.412 192.002L140.405 192.007C138.764 192.906 138.115 194.951 138.959 196.64C139.824 198.369 141.926 199.069 143.655 198.205C144.062 198.002 144.483 197.701 144.735 197.52C145.061 197.284 145.451 196.988 145.885 196.65C146.755 195.972 147.873 195.07 149.139 194.024C151.675 191.931 154.862 189.218 157.962 186.484C161.052 183.759 164.099 180.974 166.334 178.748C167.438 177.648 168.419 176.611 169.115 175.749C169.448 175.336 169.824 174.834 170.106 174.305C170.242 174.05 170.445 173.628 170.561 173.101C170.665 172.628 170.816 171.529 170.156 170.392L169.577 169.394L167.996 168.709C160.582 165.497 151.621 161.614 143.554 157.8C135.178 153.839 128.153 150.129 124.735 147.431C123.218 146.233 121.017 146.492 119.819 148.009C118.622 149.526 118.881 151.727 120.398 152.925C124.542 156.196 132.298 160.221 140.562 164.128C145.276 166.357 150.282 168.605 155.092 170.722C153.757 171.186 151.96 171.78 149.766 172.44C144.602 173.991 137.256 175.895 128.565 177.294C111.127 180.099 88.5624 180.822 67.3562 172.87C46.3056 164.976 31.4444 148.878 21.7818 134.507C16.9666 127.345 13.4903 120.682 11.2211 115.816Z" fill="#0B0C18"/>
</svg>
